src/assets/filled/Crown.svg

<svg width="24" height="24" viewBox="0 0 24 24"  xmlns="http://www.w3.org/2000/svg">
<path d="M17 22H7C6.59 22 6.25 21.66 6.25 21.25C6.25 20.84 6.59 20.5 7 20.5H17C17.41 20.5 17.75 20.84 17.75 21.25C17.75 21.66 17.41 22 17 22Z" />
<path d="M20.35 5.52004L16.35 8.38004C15.82 8.76004 15.06 8.53004 14.83 7.92004L12.94 2.88004C12.62 2.01004 11.39 2.01004 11.07 2.88004L9.16998 7.91004C8.93998 8.53004 8.18997 8.76004 7.65998 8.37004L3.65998 5.51004C2.85998 4.95004 1.79998 5.74004 2.12998 6.67004L6.28998 18.32C6.42998 18.72 6.80998 18.98 7.22998 18.98H16.76C17.18 18.98 17.56 18.71 17.7 18.32L21.86 6.67004C22.2 5.74004 21.14 4.95004 20.35 5.52004ZM14.5 14.75H9.49998C9.08998 14.75 8.74998 14.41 8.74998 14C8.74998 13.59 9.08998 13.25 9.49998 13.25H14.5C14.91 13.25 15.25 13.59 15.25 14C15.25 14.41 14.91 14.75 14.5 14.75Z" />
</svg>

<?xml version="1.0" encoding="UTF-8"?>
<svg width="24" height="24" viewBox="0 0 24 24" xmlns="http://www.w3.org/2000/svg">
 <path d="m17 22h-10c-0.41 0-0.75-0.34-0.75-0.75s0.34-0.75 0.75-0.75h10c0.41 0 0.75 0.34 0.75 0.75s-0.34 0.75-0.75 0.75z"/>
 <path d="m20.35 5.52-4 2.86c-0.53 0.38-1.29 0.15-1.52-0.46l-1.89-5.04c-0.32-0.87-1.55-0.87-1.87 0l-1.9 5.03c-0.23 0.62-0.98001 0.85-1.51 0.46l-4-2.86c-0.8-0.56-1.86 0.23-1.53 1.16l4.16 11.65c0.14 0.4 0.52 0.66 0.94 0.66h9.53c0.42 0 0.8-0.27 0.94-0.66l4.16-11.65c0.34-0.93-0.72-1.72-1.51-1.15zm-5.85 9.23h-5c-0.41 0-0.75-0.34-0.75-0.75s0.34-0.75 0.75-0.75h5c0.41 0 0.75 0.34 0.75 0.75s-0.34 0.75-0.75 0.75z"/>
</svg>
